!!!SOCIAL_FUNCTION:	songs used in treatment of the sick
!!!PDT:	1918

Specific Region: Dakotas, Minnesota, Montana, Nebraska
!!!REG: Dakotas and Montana
!!!LING_GROUP: Siouan
!!!LANG: Tone
!!!OTL@ENG: Sitting Bull's Medicine Song (a)
!!!ONM: No. 91
**kern
*Imale
*clefF4
*k[b-e-]
*M2/4
*>[A,A]
*>norep[A]
*>A
=!|:
*MM63
16F
16F
=1
8.d
16e-
4d
=2
8.c
16d
8.c
16B-
=3
4B-
4B-
=4||
*M3/4
[2B-
8B-]
16c
16c
=5||
*M2/4
8.c
16d
8.c
16B-
=6
4B-
8B-
16.G
32F
=7
4F
4F
=8||
*M3/4
[2F
8F]
16D
16D
=9||
*M2/4
4F
8.G
16G
=10
8.F
16G
8.F
16D
=11
4D
4D
=12
2D
=13
4.D
==:|!
*-
!!!CNT: Native American -- Sioux
!!!MRD: 1911/07//-1914///
!!!OCL: Frances Densmore
!!!YOR1: Teton Sioux Music, Bulletin 61,
!!!YOR2: Bureau of American Ethnology, Smithsonian Institution
!!!PPR: Government Printing Office
!!!PPP: Washington, D.C.
!!!PDT: 1918///
!!!ENC: Craig Stuart Sapp
!!!END: 2002/03/25/
!!!EEV: 2002/03/31/
!!!AGN: Song of Personal Dreams/Song Used in Treatment of the Sick
!!!MPN@@SIO: Tatang'ka-wangzhi'la
!!!MPN@ENG: One Buffalo
!!!TXO: Teton Sioux
!!!MLC: Standing Rock Reservation, South Dakota, United States of America
!!!ARL: 45.9/-100.7#
!!!catalog: Catalogue No. 654
!!!PPG: 272
!!!EFL: 91/245
!!!VTS: 3058553917
